X: 8724
T: Cruel Is The Snow That Sweeps Glencoe
R: waltz
M: 3/4
K: Gmajor
D2|B4AG|D4D2|E4CE|D4D2|
B4AG|D4G2|F2A4|A4D2|
B4AG|D4D2|E2C2E2|D4D2|
E2C2G2|F2D2A2|A6|G4D2||
G2B3D|A2C3D|B2D2B2|G4G2|
A2C3A|D4D2|B2D3B|A4D2|
G2B3D|A2C3D|B2D2B2|G4D2|
E2C2G2|F2D2A2|A6|G4z2|

